X: 3
T: Hora Medura [Am]
Z: John Chambers <jc:trillian.mit.edu>
M: 2/4
L: 1/8
K: Am
|: "Am"EA- Ac | AA A2 | ee "Dm"dd | "E7"cB "Am"A2 :|
|: "Dm"B/c/d- dd- | dd- dd | "E7"c>B AA |1,3 Bc "Dm"d2 :|2,4 "Am"A3 z :|
%%sep 2 1 500
